svg/business/VIP_2_fill.svg

<?xml version="1.0" encoding="UTF-8"?>
<svg width="24px" height="24px" viewBox="0 0 24 24" version="1.1" xmlns="http://www.w3.org/2000/svg" xmlns:xlink="http://www.w3.org/1999/xlink">
    <title>VIP_2_fill</title>
    <g id="页面-1" stroke="none" stroke-width="1" fill="none" fill-rule="evenodd">
        <g id="Business" transform="translate(-192.000000, -240.000000)" fill-rule="nonzero">
            <g id="VIP_2_fill" transform="translate(192.000000, 240.000000)">
                <path d="M24,0 L24,24 L0,24 L0,0 L24,0 Z M12.5934901,23.257841 L12.5819402,23.2595131 L12.5108777,23.2950439 L12.4918791,23.2987469 L12.4918791,23.2987469 L12.4767152,23.2950439 L12.4056548,23.2595131 C12.3958229,23.2563662 12.3870493,23.2590235 12.3821421,23.2649074 L12.3780323,23.275831 L12.360941,23.7031097 L12.3658947,23.7234994 L12.3769048,23.7357139 L12.4804777,23.8096931 L12.4953491,23.8136134 L12.4953491,23.8136134 L12.5071152,23.8096931 L12.6106902,23.7357139 L12.6232938,23.7196733 L12.6232938,23.7196733 L12.6266527,23.7031097 L12.609561,23.275831 C12.6075724,23.2657013 12.6010112,23.2592993 12.5934901,23.257841 L12.5934901,23.257841 Z M12.8583906,23.1452862 L12.8445485,23.1473072 L12.6598443,23.2396597 L12.6498822,23.2499052 L12.6498822,23.2499052 L12.6471943,23.2611114 L12.6650943,23.6906389 L12.6699349,23.7034178 L12.6699349,23.7034178 L12.678386,23.7104931 L12.8793402,23.8032389 C12.8914285,23.8068999 12.9022333,23.8029875 12.9078286,23.7952264 L12.9118235,23.7811639 L12.8776777,23.1665331 C12.8752882,23.1545897 12.8674102,23.1470016 12.8583906,23.1452862 L12.8583906,23.1452862 Z M12.1430473,23.1473072 C12.1332178,23.1423925 12.1221763,23.1452606 12.1156365,23.1525954 L12.1099173,23.1665331 L12.0757714,23.7811639 C12.0751323,23.7926639 12.0828099,23.8018602 12.0926481,23.8045676 L12.108256,23.8032389 L12.3092106,23.7104931 L12.3186497,23.7024347 L12.3186497,23.7024347 L12.3225043,23.6906389 L12.340401,23.2611114 L12.337245,23.2485176 L12.337245,23.2485176 L12.3277531,23.2396597 L12.1430473,23.1473072 Z" id="MingCute" fill-rule="nonzero"></path>
                <path d="M12.9873,5.73973 C13.5921,5.39577 14,4.74552 14,4 C14,2.89543 13.1046,2 12,2 C10.8954,2 10,2.89543 10,4 C10,4.7472 10.4097,5.39869 11.0168,5.74205 L11.0078,5.76034 C10.3521,7.12693 9.44232,9.08475 8.03664,9.81975 C6.88336,10.4228 5.22628,10.1194 3.99634,9.8944 C3.94215,9.11525 3.29293,8.5 2.5,8.5 C1.67157,8.5 1,9.17157 1,10 C1,10.7347 1.52815,11.346 2.22548,11.4749 L5.17264,19.0836 C5.62005,20.2387 6.7314,21 7.97011,21 L16.0299,21 C17.2686,21 18.3799,20.2387 18.8274,19.0836 L21.7745,11.4749 C22.4718,11.346 23,10.7347 23,10 C23,9.17157 22.3284,8.5 21.5,8.5 C20.7223,8.5 20.0828,9.09186 20.0074,9.84973 C18.7483,10.013 17.1251,10.2213 15.9634,9.61387 C14.5859,8.89364 13.6634,7.07077 12.9873,5.73973 Z" id="路径" fill="#09244B"></path>
            </g>
        </g>
    </g>
</svg>

<svg xmlns="http://www.w3.org/2000/svg" width="24" height="24"><g fill="none" fill-rule="nonzero"><path d="M24 0v24H0V0zM12.593 23.258l-.011.002-.071.035-.02.004-.014-.004-.071-.035c-.01-.004-.019-.001-.024.005l-.004.01-.017.428.005.02.01.013.104.074.015.004.012-.004.104-.074.012-.016.004-.017-.017-.427c-.002-.01-.009-.017-.017-.018m.265-.113-.013.002-.185.093-.01.01-.003.011.018.43.005.012.008.007.201.093c.012.004.023 0 .029-.008l.004-.014-.034-.614c-.003-.012-.01-.02-.02-.022m-.715.002a.023.023 0 0 0-.027.006l-.006.014-.034.614c0 .012.007.02.017.024l.015-.002.201-.093.01-.008.004-.011.017-.43-.003-.012-.01-.01z"/><path fill="#09244B" d="M12.987 5.74a2 2 0 1 0-1.97.002l-.01.018c-.655 1.367-1.565 3.325-2.97 4.06-1.154.603-2.81.3-4.04.074a1.5 1.5 0 1 0-1.772 1.58l2.948 7.61A3 3 0 0 0 7.97 21h8.06a3 3 0 0 0 2.797-1.916l2.947-7.61a1.5 1.5 0 1 0-1.767-1.624c-1.259.163-2.882.371-4.044-.236-1.377-.72-2.3-2.543-2.976-3.874"/></g></svg>
